src/assets/icons/members/baby.svg

<svg width="48" height="48" viewBox="0 0 48 48" fill="none" xmlns="http://www.w3.org/2000/svg">
<path d="M24 16C20.7 16 18 13.3 18 10C18 6.7 20.7 4 24 4C27.3 4 30 6.7 30 10C30 13.3 27.3 16 24 16ZM35 28C34.5 28 34 27.8 33.6 27.4L27.9 21.7C27.4 21.5 25.9 21 24 21C22.1 21 20.7 21.5 20.1 21.7L14.4 27.4C13.6 28.2 12.4 28.2 11.6 27.4C10.8 26.6 10.8 25.4 11.6 24.6L17.6 18.6C17.8 18.4 17.9 18.3 18.1 18.2C18.3 18.1 20.6 17 24 17C27.4 17 29.6 18.1 29.9 18.2C30.1 18.3 30.3 18.4 30.4 18.6L36.4 24.6C37.2 25.4 37.2 26.6 36.4 27.4C36 27.8 35.5 28 35 28Z" fill="#FFB74D"/>
<path d="M18 20H30V32H18V20Z" fill="#FFB74D"/>
<path d="M19.5001 43.1001C18.8001 43.1001 18.0001 42.8001 17.5001 42.2001L13.5001 38.1001C12.8001 37.2001 12.8001 35.8001 13.5001 34.9001C13.5001 34.9001 13.9001 33.0001 16.9001 31.0001C18.8001 29.8001 20.9001 27.7001 22.0001 28.6001C23.1001 29.5001 23.8001 32.0001 22.9001 33.0001L18.6001 36.5001L21.3001 39.0001C22.2001 40.1001 22.0001 41.6001 20.9001 42.5001C20.6001 42.9001 20.1001 43.1001 19.5001 43.1001ZM28.5001 43.0001C29.2001 43.0001 30.0001 42.7001 30.5001 42.1001L34.5001 38.1001C35.2001 37.2001 35.2001 35.8001 34.5001 34.9001C34.5001 34.9001 34.1001 33.0001 31.1001 31.0001C28.1001 29.0001 27.1001 27.7001 26.0001 28.6001C24.9001 29.5001 24.2001 32.0001 25.1001 33.0001L29.4001 36.5001L26.7001 38.9001C25.8001 40.0001 26.0001 41.6001 27.1001 42.4001C27.4001 42.8001 27.9001 43.0001 28.5001 43.0001Z" fill="#FFB74D"/>
<path d="M30 27H18C18 27 17 29 17 31C19 31 21 34 21 34C21 34 21 35 24 35C27 35 27 34 27 34C27 34 29 31 31 31C31 29 30 27 30 27Z" fill="#2196F3"/>
<path d="M30.4001 28H28.0001C27.4001 28 27.0001 28.4 27.0001 29C27.0001 29.6 27.4001 30 28.0001 30H30.9001C30.8001 29.2 30.6001 28.5 30.4001 28ZM17.6001 28H20.0001C20.6001 28 21.0001 28.4 21.0001 29C21.0001 29.6 20.6001 30 20.0001 30H17.1001C17.2001 29.2 17.4001 28.5 17.6001 28Z" fill="#1565C0"/>
</svg>

<svg xmlns="http://www.w3.org/2000/svg" width="48" height="48" fill="none" xmlns:v="https://vecta.io/nano"><g fill="#ffb74d"><path d="M24 16a6.02 6.02 0 0 1-6-6 6.02 6.02 0 0 1 6-6 6.02 6.02 0 0 1 6 6 6.02 6.02 0 0 1-6 6zm11 12c-.5 0-1-.2-1.4-.6l-5.7-5.7c-.5-.2-2-.7-3.9-.7s-3.3.5-3.9.7l-5.7 5.7a1.93 1.93 0 0 1-2.8 0 1.93 1.93 0 0 1 0-2.8l6-6c.2-.2.3-.3.5-.4S20.6 17 24 17s5.6 1.1 5.9 1.2c.2.1.4.2.5.4l6 6a1.93 1.93 0 0 1 0 2.8c-.4.4-.9.6-1.4.6z"/><path d="M18 20H30V32H18V20Z"/><path d="M19.5 43.1c-.7 0-1.5-.3-2-.9l-4-4.1c-.7-.9-.7-2.3 0-3.2 0 0 .4-1.9 3.4-3.9 1.9-1.2 4-3.3 5.1-2.4s1.8 3.4.9 4.4l-4.3 3.5 2.7 2.5c.9 1.1.7 2.6-.4 3.5-.3.4-.8.6-1.4.6zm9-.1c.7 0 1.5-.3 2-.9l4-4c.7-.9.7-2.3 0-3.2 0 0-.4-1.9-3.4-3.9s-4-3.3-5.1-2.4-1.8 3.4-.9 4.4l4.3 3.5-2.7 2.4c-.9 1.1-.7 2.7.4 3.5.3.4.8.6 1.4.6z"/></g><path d="M30 27H18s-1 2-1 4c2 0 4 3 4 3s0 1 3 1 3-1 3-1 2-3 4-3c0-2-1-4-1-4z" fill="#2196f3"/><path d="M30.4 28H28a.94.94 0 0 0-1 1 .94.94 0 0 0 1 1h2.9c-.1-.8-.3-1.5-.5-2zm-12.8 0H20a.94.94 0 0 1 1 1 .94.94 0 0 1-1 1h-2.9c.1-.8.3-1.5.5-2z" fill="#1565c0"/></svg>
